packages/assets/static/images/icons/bold/ear-slash--bold.svg

<svg width="24" height="24" viewBox="0 0 24 24" xmlns="http://www.w3.org/2000/svg">
<path d="M20.3287 19.4946C20.4301 19.6035 20.5089 19.7316 20.5605 19.8712C20.6121 20.0108 20.6355 20.1593 20.6293 20.3081C20.6231 20.4568 20.5874 20.6029 20.5243 20.7377C20.4613 20.8726 20.372 20.9936 20.2619 21.0937C20.1517 21.1938 20.0228 21.2711 19.8825 21.321C19.7422 21.3709 19.5935 21.3925 19.4448 21.3845C19.2962 21.3765 19.1506 21.3391 19.0165 21.2744C18.8824 21.2097 18.7625 21.1191 18.6637 21.0077L15.5371 17.569C15.3592 17.6064 15.178 17.6256 14.9962 17.6261C14.3 17.6261 13.6323 17.3496 13.14 16.8573C12.6477 16.365 12.3712 15.6973 12.3712 15.0011C12.371 14.7236 12.3977 14.4467 12.4509 14.1743L9.09744 10.4852C8.94748 10.6588 8.74806 10.7823 8.52591 10.8393C8.30375 10.8964 8.06947 10.8841 7.85446 10.8043C7.63946 10.7244 7.454 10.5807 7.32294 10.3925C7.19188 10.2043 7.12148 9.9805 7.12119 9.75114C7.12075 9.3261 7.17591 8.90282 7.28525 8.49208L6.13869 7.2302C5.79585 8.02636 5.61973 8.88431 5.62119 9.75114C5.62119 12.0949 6.33181 12.7793 7.154 13.5724C7.97619 14.3655 8.99619 15.349 8.99619 17.6261C8.99619 18.4218 9.31226 19.1849 9.87487 19.7475C10.4375 20.3101 11.2005 20.6261 11.9962 20.6261C12.8399 20.6261 13.514 20.2793 14.129 19.5349C14.3212 19.3122 14.5929 19.1737 14.886 19.149C15.1791 19.1242 15.4703 19.2153 15.697 19.4026C15.9238 19.5899 16.0682 19.8586 16.0993 20.1511C16.1304 20.4436 16.0457 20.7366 15.8634 20.9674C14.8171 22.234 13.5159 22.8761 11.9962 22.8761C10.6043 22.8747 9.26976 22.3211 8.28552 21.3368C7.30128 20.3526 6.74768 19.0181 6.74619 17.6261C6.74619 16.3052 6.31212 15.8861 5.59212 15.1886C4.60212 14.238 3.37119 13.0502 3.37119 9.75114C3.36791 8.24119 3.76412 6.75725 4.51962 5.44989L3.66369 4.51239C3.56403 4.40307 3.48687 4.27518 3.43664 4.13604C3.3864 3.9969 3.36406 3.84922 3.37089 3.70145C3.37773 3.55367 3.4136 3.40869 3.47647 3.27478C3.53933 3.14087 3.62796 3.02065 3.73728 2.92099C3.84661 2.82132 3.97449 2.74417 4.11363 2.69393C4.25277 2.6437 4.40045 2.62136 4.54823 2.62819C4.696 2.63503 4.84098 2.6709 4.9749 2.73376C5.10881 2.79663 5.22903 2.88525 5.32869 2.99458L20.3287 19.4946ZM9.30931 3.9677C10.1506 3.57553 11.068 3.37356 11.9962 3.37614C13.6864 3.37788 15.3069 4.05009 16.5021 5.24525C17.6972 6.44042 18.3694 8.06092 18.3712 9.75114C18.3712 10.0495 18.4897 10.3357 18.7007 10.5466C18.9117 10.7576 19.1978 10.8761 19.4962 10.8761C19.7946 10.8761 20.0807 10.7576 20.2917 10.5466C20.5027 10.3357 20.6212 10.0495 20.6212 9.75114C20.6215 8.30156 20.2564 6.87529 19.5597 5.60412C18.863 4.33294 17.8571 3.25787 16.635 2.47823C15.413 1.69859 14.0141 1.23953 12.5677 1.14347C11.1213 1.04741 9.67406 1.31745 8.35962 1.92864C8.09632 2.05892 7.89442 2.28703 7.79708 2.5642C7.69974 2.84138 7.71468 3.14564 7.83871 3.41194C7.96274 3.67825 8.18602 3.88547 8.46083 3.98933C8.73563 4.09318 9.04015 4.08542 9.30931 3.9677ZM15.4115 11.5615C15.495 11.5815 15.5806 11.5916 15.6665 11.5915C15.9205 11.5912 16.167 11.5051 16.3659 11.3469C16.5647 11.1888 16.7041 10.968 16.7615 10.7205C16.8351 10.4027 16.8719 10.0774 16.8712 9.75114C16.8697 8.45867 16.3556 7.21956 15.4417 6.30564C14.5278 5.39172 13.2887 4.87763 11.9962 4.87614C11.8368 4.87614 11.6756 4.88364 11.5171 4.89958C11.2201 4.92855 10.9468 5.07431 10.7573 5.3048C10.5677 5.5353 10.4775 5.83164 10.5065 6.12864C10.5355 6.42564 10.6812 6.69897 10.9117 6.8885C11.1422 7.07803 11.4386 7.16823 11.7356 7.13927C11.8218 7.13083 11.9099 7.12614 11.9962 7.12614C12.6924 7.12614 13.3601 7.4027 13.8523 7.89499C14.3446 8.38727 14.6212 9.05495 14.6212 9.75114C14.6217 9.90507 14.6047 10.0586 14.5706 10.2086C14.5032 10.4992 14.5539 10.8046 14.7116 11.0577C14.8693 11.3109 15.121 11.4911 15.4115 11.5586V11.5615Z"/>
</svg>

<svg viewBox="0 0 24 24" xmlns="http://www.w3.org/2000/svg" aria-hidden="true" fill="currentColor"><path d="M20.329 19.495a1.125 1.125 0 1 1-1.665 1.513l-3.127-3.439q-.268.056-.54.057a2.625 2.625 0 0 1-2.626-2.625q0-.417.08-.827l-3.354-3.689a1.124 1.124 0 0 1-1.976-.734c0-.425.055-.848.164-1.259L6.14 7.23a6.35 6.35 0 0 0-.518 2.521c0 2.344.71 3.028 1.533 3.821.822.794 1.842 1.777 1.842 4.054a3 3 0 0 0 3 3c.844 0 1.518-.347 2.133-1.091a1.125 1.125 0 0 1 1.734 1.432c-1.046 1.267-2.347 1.91-3.867 1.91a5.255 5.255 0 0 1-5.25-5.25c0-1.322-.434-1.74-1.154-2.438-.99-.951-2.22-2.139-2.22-5.438A8.56 8.56 0 0 1 4.52 5.45l-.856-.938a1.126 1.126 0 1 1 1.665-1.517zM9.309 3.968a6.382 6.382 0 0 1 9.062 5.783 1.125 1.125 0 1 0 2.25 0A8.625 8.625 0 0 0 8.36 1.93a1.125 1.125 0 0 0 .95 2.039m6.103 7.594q.125.03.254.03a1.126 1.126 0 0 0 1.096-.872c.073-.317.11-.643.11-.969A4.88 4.88 0 0 0 11.516 4.9a1.125 1.125 0 1 0 .219 2.24q.13-.014.26-.014a2.625 2.625 0 0 1 2.625 2.625q0 .232-.05.458a1.125 1.125 0 0 0 .84 1.35z"/></svg>
